lib/svgs/zhihu.svg

<svg xmlns="http://www.w3.org/2000/svg" viewBox="0 0 20 20">
    <path fill="#000" fill-rule="evenodd" d="M7.54204821,10.7857891 L10.5031593,10.7857891 C10.5031593,9.96632383 10.3018072,9.67368977 10.1868541,9.64447132 L7.62829988,9.64447132 C7.65714856,9.58588457 7.74340023,7.74212517 7.77210173,6.13256292 L10.1868541,6.13256292 C10.2444043,5.51792651 10.1006024,4.99124514 9.8419946,4.96202669 L5.5585542,4.96202669 C5.61610438,4.69861108 5.67350736,4.40597702 5.78846053,4.08397467 C5.93226237,3.64494866 6.07606422,3.20607249 6.16231588,3.03046209 C6.10476571,2.97187534 5.98981255,3.00124363 5.73105754,3.08904883 C5.44360104,3.17685403 5.24239621,3.2645094 5.01234269,3.46948809 C4.86854085,3.58651175 4.75358769,3.76212215 4.66733602,3.93773256 C4.40858101,4.61080588 3.8623695,6.54222064 3.14380184,7.88851712 C4.26492635,7.80071192 4.81113786,7.15685705 4.9836412,6.63002584 C5.06989287,6.45441544 5.09859436,6.24958658 5.15614454,6.10334447 L6.65097722,6.10334447 C6.65097722,6.77641779 6.62212854,8.00554078 6.50717537,9.64447132 C5.21354753,9.64447132 4.60993303,9.61510302 3.89121818,9.61510302 C3.48866133,9.73227652 3.2874565,10.3759815 3.23005351,10.7857891 L3.25875501,10.7857891 L6.39222221,10.7857891 C6.30597054,11.4002757 6.27726905,11.722278 6.04721553,12.6293987 C5.61610438,13.9756951 4.92609102,15.0292077 3.97746985,15.9656967 C3.71871485,16.2583307 3.37370817,16.5509648 3.02870149,16.8143804 C3,16.8435988 3,16.8435988 3,16.8729671 C3.31630518,17.1656012 4.46613119,16.8729671 4.6961847,16.7851619 C4.92609102,16.6973567 5.12729586,16.63877 5.29979919,16.4925279 C5.90356088,15.9656967 6.65097722,14.7951604 7.11093706,13.0392062 C8.83582325,15.0877945 9.20953142,15.702281 9.64064258,16.1998938 L9.69819275,16.1998938 C9.8419946,15.702281 9.92809908,14.8828158 9.75574293,14.4731581 L9.64064258,14.2683292 C8.80697457,13.2440351 8.80697457,13.2440351 7.8583534,12.2197409 C7.31214189,12.658767 7.19718873,12.7757906 7.19718873,12.7757906 C7.19718873,12.7757906 7.31214189,12.3075461 7.34084338,12.1027173 C7.48464523,11.5758861 7.48464523,11.3124705 7.54204821,10.7857891 L7.54204821,10.7857891 L7.54204821,10.7857891 L7.54204821,10.7857891 Z M16.8274967,4.75704799 L11.3655288,4.75704799 C11.3079786,4.75704799 11.1930254,4.84485319 11.1930254,4.93265839 L11.1930254,15.3218418 C11.1930254,15.3804285 11.2505756,15.4682337 11.3655288,15.4682337 L12.2278983,15.4682337 C12.2854484,15.4682337 12.3717001,16.0535019 12.6017536,16.6681383 C13.8091298,15.8778914 14.3264926,15.5560389 14.5852476,15.4682337 L16.8274967,15.4682337 C16.9137483,15.4682337 16.9712985,15.409647 16.9712985,15.3218418 C16.9712985,8.38598004 17,12.0149121 17,4.90343994 C17,4.81563474 16.8850468,4.75704799 16.8274967,4.75704799 L16.8274967,4.75704799 L16.8274967,4.75704799 L16.8274967,4.75704799 Z M15.8213253,14.2097425 C15.8213253,14.2683292 15.7639223,14.2975477 15.7352208,14.2975477 L14.5565461,14.2975477 C14.5276975,14.2975477 14.498996,14.3269159 14.498996,14.3269159 C14.2115395,14.5609633 13.7802811,14.8243789 13.0615663,15.2340366 C12.9466131,14.8243789 12.83166,14.2975477 12.8029585,14.2975477 L12.4579518,14.2975477 C12.4004016,14.2975477 12.3717001,14.2683292 12.3717001,14.2097425 L12.3717001,6.01553927 C12.3717001,5.95695252 12.4292503,5.89851561 12.4579518,5.89851561 L15.7352208,5.89851561 C15.7639223,5.89851561 15.8213253,5.95695252 15.8213253,5.98632081 L15.8213253,14.2097425 L15.8213253,14.2097425 L15.8213253,14.2097425 Z"/>
</svg>

<svg xmlns="http://www.w3.org/2000/svg" viewBox="0 0 20 20">
    <path fill="#000" fill-rule="evenodd" d="M7.542 10.786h2.961c0-.82-.201-1.112-.316-1.142H7.628c.03-.058.115-1.902.144-3.511h2.415c.057-.615-.086-1.142-.345-1.171H5.559c.057-.263.115-.556.23-.878.143-.44.287-.878.373-1.054-.057-.058-.172-.029-.43.059a1.715 1.715 0 0 0-.72.38 1.405 1.405 0 0 0-.345.469c-.258.673-.805 2.604-1.523 3.95 1.12-.087 1.667-.731 1.84-1.258.086-.176.115-.38.172-.527h1.495c0 .673-.029 1.903-.144 3.541-1.293 0-1.897-.029-2.616-.029-.402.117-.604.761-.66 1.17h3.161c-.086.615-.115.937-.345 1.844a7.956 7.956 0 0 1-2.07 3.337 6.823 6.823 0 0 1-.948.848c-.029.03-.029.03-.029.059.316.293 1.466 0 1.696-.088.23-.088.431-.146.604-.292.604-.527 1.351-1.698 1.81-3.454 1.726 2.049 2.1 2.663 2.53 3.16h.058c.144-.497.23-1.316.058-1.726l-.115-.205c-.834-1.024-.834-1.024-1.783-2.048-.546.439-.66.556-.66.556s.114-.468.143-.673c.144-.527.144-.79.201-1.317m9.285-6.029h-5.461c-.058 0-.173.088-.173.176v10.389c0 .058.058.146.173.146h.862c.057 0 .144.586.374 1.2 1.207-.79 1.724-1.112 1.983-1.2h2.242c.087 0 .144-.058.144-.146 0-6.936.029-3.307.029-10.419 0-.087-.115-.146-.173-.146m-1.006 9.453c0 .058-.057.088-.086.088h-1.178c-.03 0-.058.029-.058.029a11.33 11.33 0 0 1-1.437.907c-.115-.41-.23-.936-.259-.936h-.345c-.058 0-.086-.03-.086-.088V6.016c0-.059.057-.117.086-.117h3.277c.029 0 .086.058.086.087v8.224"/>
</svg>
